X:691
%%etbk:tnset id:19,pos:1,rep:3x,ant:
%%etbk:wsite https://thesession.org/tunes/171
%%etbk:video src:ytube,cde:_DdtlFJ1w2g,desc:
%%etbk:pldat 2016-09-17T14:32,2016-09-10T16:32,2016-09-06T16:18,2016-08-09T17:51,2016-08-02T15:26,2016-07-23T16:01,2016-07-18T19:33,2016-07-15T16:19,2016-07-12T16:31,2016-07-09T13:30,2016-06-13T17:31,2016-06-12T14:38,2016-05-30T19:01,2016-05-25T16:24,2016-05-24T17:09,2016-05-16T16:38,2016-05-15T16:16,2016-05-14T17:26,2016-05-12T19:18,2016-05-09T19:35,2016-05-04T17:07,2016-05-03T18:37,2016-04-30T17:43,2016-04-23T15:56,2016-04-21T19:11,2016-04-20T15:48,2015-12-13T15:18,2015-07-22T16:54,2015-07-19T15:38,2015-07-18T15:19,2015-07-17T11:19,2015-07-16T16:45,2015-07-11T17:37,2015-05-06T17:57,2015-04-28T17:35,2015-04-21T16:41,2015-04-20T18:32,2015-04-19T15:55
T: Jimmy Lyon's Highland
Z: Piano Box Version by Martin Fleischmann
H: Created 2015-04-10 /  Last Modified 2016-04-20
R: highland fling
M: 4/4
L: 1/8
K: Amaj
"A"!1!A>!5!ag>a !2!e<A!2!c>A|"D"!2!F>!5!dc>d "E"!3!B<!1!EG>B|"A"A>ag>a e<Ac>A| !2!F>A"E"G>B "A"!4!A<EE>!2!G|
"A"!1!A>ag>a e<Ac>A|"D"F>dc>d "E"B<EG>B| "A"!1!(3Ace !5!a>e !4!f>ec>A | "E"!2!B>A!2!G>!4!B "A"!1!A>!5!ag>f|
"A"!2!e<!1!ce>a "D"!3!f<df>e|"E"!1!d>!2!c!1!B>!5!a  (3gfe (3fga|"A"!2!e<ce>a "D"f>df>a| "E"!4!(3gfe !1!(3d!3!cB (3Ace (3agf|
"A"e<ce>a "D"f<df>e|"E"d>cB>a  g>ee>f| "A"!1!(3efe c>e "D"!2!(3faf d>!2!f|  "E"!3!(3gab (3efg "A"a>fe>!3!c||


